X:1
T:Title
%%score { ( 1 5 ) | ( 2 3 4 ) }
L:1/8
M:4/2
K:Eb
V:1 treble nm="Grand Piano"
V:5 treble 
V:2 bass 
V:3 bass 
V:4 bass 
V:1
 z8 z4[Q:1/4=220] B4 | G4 E4 A4 G4 | c8 B4 E4 | [CA]4 [CFA]4 [B,EG]4 [B,DF]4 |[M:6/4] [B,EG]12 | %5
[M:2/4] [B,DB]4 |[M:8/4] [B,EG]4 [B,E]4 [A,EA]4 [B,EG]4 | c8 z8 | [Ge]4 [Gc]4 [FB]4 [E=A]4 | %9
[M:6/4] [DB]12 |[M:2/4] [DF]4 |[M:8/4] [EG]4 [DF]4 G4 A4 | c8 B4 B4 | c4 B4 c4 [FAd]4 | %14
[M:6/4] [Ge]12 |[M:2/4] [F=Ae]4 |[M:8/4] [FBd]4 [DFc]4 [EGB]4 [Gc]4 | A8 z8 | E4 A4 G4 [DF]4 | %19
[M:6/4] [B,E]12 |] %20
V:2
 z8 z4 [E,G,E]4 | [E,B,E]4 [E,G,B,]4 [E,CE]4 [E,B,E]4 | [E,A,E]8 [E,G,E]4 [C,G,]4 | %3
 [A,,F,]4 A,,4 B,,4 B,,4 |[M:6/4] E,12 |[M:2/4] B,,4 |[M:8/4] z4 A,4 z8 | A,,4 A,4 G,4 F,4 | %8
 [E,B,]4 [E,E]4 [F,D]4 [F,C]4 |[M:6/4] [B,,B,]12 |[M:2/4] [B,,B,]4 | %11
[M:8/4] [E,B,]4 [B,,B,]4 [E,B,E]4 [F,D]4 | [A,DF]8 [G,B,E]4[K:bass] [E,G,E]4 | %13
 [A,E]4 [E,G,E]4 [A,E]4 F,4 |[M:6/4] C12 |[M:2/4] F,4 |[M:8/4] B,4 A,4 G,4 [E,G,]4 | %17
 [F,A,C]4 [B,,B,]4 [E,B,E]4 [G,_DE]4 | [A,C]4 [F,CE]4 [B,E]4 [B,,A,]4 |[M:6/4] [E,G,]12 |] %20
V:3
 x16 | x16 | x16 | x16 |[M:6/4] x12 |[M:2/4] x4 |[M:8/4] E,8 z8 | x16 | x16 |[M:6/4] x12 | %10
[M:2/4] x4 |[M:8/4] x16 | x12[K:bass] x4 | x16 |[M:6/4] x12 |[M:2/4] x4 |[M:8/4] x16 | x16 | x16 | %19
[M:6/4] x12 |] %20
V:4
 x16 | x16 | x16 | x16 |[M:6/4] x12 |[M:2/4] x4 |[M:8/4] z4 z2 D,2 C,4 B,,4 | x16 | x16 | %9
[M:6/4] x12 |[M:2/4] x4 |[M:8/4] x16 | x12[K:bass] x4 | x16 |[M:6/4] x12 |[M:2/4] x4 |[M:8/4] x16 | %17
 x16 | x16 |[M:6/4] x12 |] %20
V:5
 x16 | x16 | x16 | x16 |[M:6/4] x12 |[M:2/4] x4 |[M:8/4] x16 | [CE]4 [DF]4 [EGB]4 [DAB]4 | x16 | %9
[M:6/4] x12 |[M:2/4] x4 |[M:8/4] x16 | x16 | x16 |[M:6/4] x12 |[M:2/4] x4 |[M:8/4] x16 | %17
 z4 D4 G4 B4 | x16 |[M:6/4] x12 |] %20

